; generated by Slic3r Prusa Edition 1.38.6-prusa3d-win64 on 2018-02-01 at 13:51:26

; 

; external perimeters extrusion width = 0.45mm
; perimeters extrusion width = 0.45mm
; infill extrusion width = 0.45mm
; solid infill extrusion width = 0.45mm
; top infill extrusion width = 0.45mm
; first layer extrusion width = 0.42mm

M107
M115 U3.1.0 ; tell printer latest fw version
M83  ; extruder relative mode
M104 S215 ; set extruder temp
M140 S60 ; set bed temp
M190 S60 ; wait for bed temp
M109 S215 ; wait for extruder temp
G28 W ; home all without mesh bed level
G80 ; mesh bed leveling
G1 Y-3.0 F1000.0 ; go outside print area
G92 E0.0
G1 X60.0 E9.0  F1000.0 ; intro line
G1 X100.0 E12.5  F1000.0 ; intro line
G92 E0.0
M900 K30; Filament gcode
G21 ; set units to millimeters
G90 ; use absolute coordinates
M83 ; use relative distances for extrusion
;BEFORE_LAYER_CHANGE
;0.2


G1 E-0.80000 F2100.00000
G1 Z0.600 F7200.000
;AFTER_LAYER_CHANGE
;0.2
G1 X116.760 Y98.609 F7200.000
G1 Z0.200 F7200.000
G1 E0.80000 F2100.00000
M204 S1000
G1 F1800
G1 X117.218 Y97.783 E0.02963
G1 X117.660 Y97.318 E0.02011
G1 X118.188 Y96.953 E0.02011
G1 X118.779 Y96.703 E0.02011
G1 X119.408 Y96.579 E0.02011
G1 X130.308 Y96.565 E0.34175
G1 X131.391 Y96.760 E0.03450
G1 X132.339 Y97.318 E0.03450
G1 X133.036 Y98.169 E0.03450
G1 X133.396 Y99.209 E0.03450
G1 X133.431 Y110.452 E0.35252
G1 X133.243 Y111.382 E0.02977
G1 X132.782 Y112.217 E0.02990
G1 X132.306 Y112.710 E0.02148
G1 X131.739 Y113.086 E0.02134
G1 X131.099 Y113.332 E0.02148
G1 X130.422 Y113.432 E0.02148
G1 X119.535 Y113.430 E0.34134
G1 X118.609 Y113.240 E0.02963
G1 X117.783 Y112.782 E0.02963
G1 X117.290 Y112.306 E0.02148
G1 X116.914 Y111.739 E0.02134
G1 X116.668 Y111.099 E0.02148
G1 X116.568 Y110.422 E0.02148
G1 X116.570 Y99.535 E0.34134
G1 X116.748 Y98.668 E0.02775
G1 X117.115 Y98.744 F7200.000
G1 F1800
G1 X117.540 Y97.983 E0.02732
G1 X117.932 Y97.582 E0.01758
G1 X118.397 Y97.269 E0.01758
G1 X118.916 Y97.056 E0.01758
G1 X119.471 Y96.952 E0.01771
G1 X130.307 Y96.943 E0.33978
G1 X131.267 Y97.116 E0.03056
G1 X132.108 Y97.616 E0.03069
G1 X132.722 Y98.379 E0.03069
G1 X133.030 Y99.308 E0.03069
G1 X133.055 Y110.426 E0.34861
G1 X132.884 Y111.267 E0.02689
G1 X132.460 Y112.017 E0.02701
G1 X132.043 Y112.439 E0.01860
G1 X131.541 Y112.764 E0.01873
G1 X130.982 Y112.973 E0.01873
G1 X130.390 Y113.056 E0.01873
G1 X119.566 Y113.054 E0.33940
G1 X118.730 Y112.882 E0.02676
G1 X117.983 Y112.460 E0.02689
G1 X117.561 Y112.043 E0.01860
G1 X117.236 Y111.541 E0.01873
G1 X117.027 Y110.982 E0.01873
G1 X116.944 Y110.390 E0.01873
G1 X116.946 Y99.566 E0.33940
G1 X117.103 Y98.803 E0.02443
G1 F5760
G1 X117.540 Y97.983 E-0.32162
G1 F5760
G1 X117.932 Y97.582 E-0.19421
G1 F5760
G1 X118.397 Y97.269 E-0.19421
G1 F5760
G1 X118.530 Y97.214 E-0.04996
G1 E-0.04000 F2100.00000
G1 Z0.800 F7200.000
G1 X118.603 Y97.586 F7200.000
G1 Z0.200 F7200.000
G1 E0.80000 F2100.00000
G1 F1800
G1 X119.532 Y97.325 E0.03024
G1 X130.307 Y97.320 E0.33785
G1 X131.145 Y97.474 E0.02673
G1 X131.875 Y97.914 E0.02673
G1 X132.405 Y98.586 E0.02684
G1 X132.662 Y99.399 E0.02673
G1 X132.678 Y110.402 E0.34499
G1 X132.525 Y111.149 E0.02390
G1 X132.143 Y111.809 E0.02390
G1 X131.780 Y112.166 E0.01597
G1 X131.349 Y112.438 E0.01597
G1 X130.870 Y112.612 E0.01597
G1 X130.362 Y112.680 E0.01609
G1 X119.594 Y112.678 E0.33761
G1 X118.847 Y112.523 E0.02390
G1 X118.191 Y112.143 E0.02378
G1 X117.834 Y111.780 E0.01597
G1 X117.562 Y111.349 E0.01597
G1 X117.388 Y110.870 E0.01597
G1 X117.320 Y110.362 E0.01609
G1 X117.322 Y99.594 E0.33761
G1 X117.477 Y98.847 E0.02390
G1 X117.857 Y98.191 E0.02378
G1 X118.557 Y97.624 E0.02824
G1 F5760
G1 X119.532 Y97.325 E-0.35325
G1 F5760
G1 X120.706 Y97.325 E-0.40675
G1 E-0.04000 F2100.00000
G1 Z0.800 F7200.000
G1 X120.661 Y100.661 F7200.000
G1 Z0.200 F7200.000
G1 E0.80000 F2100.00000
G1 F1800
G1 X129.339 Y100.661 E0.27210
G1 X129.339 Y109.339 E0.27210
G1 X120.661 Y109.339 E0.27210
G1 X120.661 Y100.721 E0.27022
G1 X120.284 Y100.284 F7200.000
G1 F1800
G1 X129.716 Y100.284 E0.29575
G1 X129.716 Y109.716 E0.29575
G1 X120.284 Y109.716 E0.29575
G1 X120.284 Y100.344 E0.29387
G1 X119.907 Y99.907 F7200.000
G1 F1800
G1 X130.093 Y99.907 E0.31939
G1 X130.093 Y110.093 E0.31939
G1 X119.907 Y110.093 E0.31939
G1 X119.907 Y99.967 E0.31751
G1 X120.293 Y100.010 F7200.000
G1 F5760
G1 X122.101 Y99.954 E-0.76000
G1 E-0.04000 F2100.00000
G1 Z0.800 F7200.000
G1 X120.774 Y108.442 F7200.000
G1 Z0.200 F7200.000
G1 E0.80000 F2100.00000
G1 F1800
G1 X121.388 Y109.056 E0.02797
G1 X121.936 Y109.056 E0.01764
G1 X120.944 Y108.064 E0.04519
G1 X120.944 Y107.516 E0.01764
G1 X122.484 Y109.056 E0.07013
G1 X123.031 Y109.056 E0.01764
G1 X120.944 Y106.969 E0.09508
G1 X120.944 Y106.421 E0.01764
G1 X123.579 Y109.056 E0.12002
G1 X124.127 Y109.056 E0.01764
G1 X120.944 Y105.873 E0.14497
G1 X120.944 Y105.326 E0.01764
G1 X124.674 Y109.056 E0.16992
G1 X125.222 Y109.056 E0.01764
G1 X120.944 Y104.778 E0.19486
G1 X120.944 Y104.230 E0.01764
G1 X125.770 Y109.056 E0.21981
G1 X126.318 Y109.056 E0.01764
G1 X120.944 Y103.682 E0.24475
G1 X120.944 Y103.135 E0.01764
G1 X126.865 Y109.056 E0.26970
G1 X127.413 Y109.056 E0.01764
G1 X120.944 Y102.587 E0.29464
G1 X120.944 Y102.039 E0.01764
G1 X127.961 Y109.056 E0.31959
G1 X128.509 Y109.056 E0.01764
G1 X120.944 Y101.491 E0.34454
G1 X120.944 Y100.944 E0.01764
G1 X129.056 Y109.056 E0.36948
G1 X129.056 Y108.509 E0.01764
G1 X121.491 Y100.944 E0.34454
G1 X122.039 Y100.944 E0.01764
G1 X129.056 Y107.961 E0.31959
G1 X129.056 Y107.413 E0.01764
G1 X122.587 Y100.944 E0.29465
G1 X123.134 Y100.944 E0.01764
G1 X129.056 Y106.866 E0.26970
G1 X129.056 Y106.318 E0.01764
G1 X123.682 Y100.944 E0.24476
G1 X124.230 Y100.944 E0.01764
G1 X129.056 Y105.770 E0.21981
G1 X129.056 Y105.222 E0.01764
G1 X124.778 Y100.944 E0.19487
G1 X125.325 Y100.944 E0.01764
G1 X129.056 Y104.675 E0.16992
G1 X129.056 Y104.127 E0.01764
G1 X125.873 Y100.944 E0.14498
G1 X126.421 Y100.944 E0.01764
G1 X129.056 Y103.579 E0.12003
G1 X129.056 Y103.031 E0.01764
G1 X126.969 Y100.944 E0.09508
G1 X127.516 Y100.944 E0.01764
G1 X129.056 Y102.484 E0.07014
G1 X129.056 Y101.936 E0.01764
G1 X128.064 Y100.944 E0.04519
G1 X128.612 Y100.944 E0.01764
G1 X129.226 Y101.558 E0.02798
M106 S252.45
;BEFORE_LAYER_CHANGE
;0.3


G1 F5760
G1 X128.612 Y100.944 E-0.30088
G1 F5760
G1 X128.064 Y100.944 E-0.18971
G1 F5760
G1 X128.614 Y101.494 E-0.26941
G1 E-0.04000 F2100.00000
G1 Z0.800 F7200.000
;AFTER_LAYER_CHANGE
;0.3
M104 S210 ; set temperature
G1 X133.036 Y98.169 F7200.000
G1 Z0.300 F7200.000
G1 E0.80000 F2100.00000
G1 F3000
G1 X133.396 Y99.209 E0.01823
G1 X133.431 Y110.452 E0.18629
G1 X133.243 Y111.382 E0.01573
G1 X132.782 Y112.217 E0.01580
G1 X132.306 Y112.710 E0.01135
G1 X131.739 Y113.086 E0.01128
G1 X131.099 Y113.332 E0.01135
G1 X130.422 Y113.432 E0.01135
G1 X119.535 Y113.430 E0.18039
G1 X118.609 Y113.240 E0.01566
G1 X117.783 Y112.782 E0.01566
G1 X117.290 Y112.306 E0.01135
G1 X116.914 Y111.739 E0.01128
G1 X116.668 Y111.099 E0.01135
G1 X116.568 Y110.422 E0.01135
G1 X116.570 Y99.535 E0.18039
G1 X116.760 Y98.609 E0.01566
G1 X117.218 Y97.783 E0.01566
G1 X117.660 Y97.318 E0.01063
G1 X118.188 Y96.953 E0.01063
G1 X118.779 Y96.703 E0.01063
G1 X119.408 Y96.579 E0.01063
G1 X130.308 Y96.565 E0.18060
G1 X131.391 Y96.760 E0.01823
G1 X132.339 Y97.318 E0.01823
G1 X132.998 Y98.122 E0.01724
G1 F5760
G1 X133.396 Y99.209 E-0.40065
G1 F5760
G1 X133.399 Y100.246 E-0.35935
G1 E-0.04000 F2100.00000
G1 Z0.900 F7200.000
G1 X129.221 Y100.779 F7200.000
G1 Z0.300 F7200.000
G1 E0.80000 F2100.00000
M204 S800
G1 F1200
G1 X129.221 Y109.221 E0.15042
G1 X120.779 Y109.221 E0.15042
G1 X120.779 Y100.779 E0.15042
G1 X129.161 Y100.779 E0.14935
M204 S1000
G1 X129.650 Y100.350 F7200.000
M204 S800
G1 F1200
G1 X129.650 Y109.650 E0.16569
G1 X120.350 Y109.650 E0.16569
G1 X120.350 Y100.350 E0.16569
G1 X129.590 Y100.350 E0.16462
M204 S1000
G1 X130.078 Y99.922 F7200.000
M204 S800
G1 F1200
G1 X130.078 Y110.078 E0.18096
G1 X119.922 Y110.078 E0.18096
G1 X119.922 Y99.922 E0.18096
G1 X130.018 Y99.922 E0.17989
M204 S1000
G1 X129.975 Y100.308 F7200.000
G1 F5760
G1 X130.031 Y102.116 E-0.76000
G1 E-0.04000 F2100.00000
G1 Z0.900 F7200.000
G1 X121.779 Y100.907 F7200.000
G1 Z0.300 F7200.000
G1 E0.80000 F2100.00000
M204 S2000
G1 F3000
G1 X121.100 Y101.586 E0.01719
G1 X121.100 Y102.195 E0.01092
G1 X122.195 Y101.100 E0.02775
G1 X122.805 Y101.100 E0.01092
G1 X121.100 Y102.805 E0.04320
G1 X121.100 Y103.414 E0.01092
G1 X123.414 Y101.100 E0.05864
G1 X124.024 Y101.100 E0.01092
G1 X121.100 Y104.024 E0.07408
G1 X121.100 Y104.633 E0.01092
G1 X124.633 Y101.100 E0.08953
G1 X125.243 Y101.100 E0.01092
G1 X121.100 Y105.243 E0.10497
G1 X121.100 Y105.852 E0.01092
G1 X125.852 Y101.100 E0.12042
G1 X126.462 Y101.100 E0.01092
G1 X121.100 Y106.462 E0.13586
G1 X121.100 Y107.071 E0.01092
G1 X127.071 Y101.100 E0.15131
G1 X127.681 Y101.100 E0.01092
G1 X121.100 Y107.681 E0.16675
G1 X121.100 Y108.290 E0.01092
G1 X128.290 Y101.100 E0.18220
G1 X128.900 Y101.100 E0.01092
G1 X121.100 Y108.900 E0.19764
G1 X121.710 Y108.900 E0.01092
G1 X128.900 Y101.710 E0.18220
G1 X128.900 Y102.319 E0.01092
G1 X122.319 Y108.900 E0.16675
G1 X122.929 Y108.900 E0.01092
G1 X128.900 Y102.929 E0.15131
G1 X128.900 Y103.538 E0.01092
G1 X123.538 Y108.900 E0.13587
G1 X124.148 Y108.900 E0.01092
G1 X128.900 Y104.148 E0.12042
G1 X128.900 Y104.757 E0.01092
G1 X124.757 Y108.900 E0.10498
G1 X125.367 Y108.900 E0.01092
G1 X128.900 Y105.367 E0.08953
G1 X128.900 Y105.976 E0.01092
G1 X125.976 Y108.900 E0.07409
G1 X126.586 Y108.900 E0.01092
G1 X128.900 Y106.586 E0.05864
G1 X128.900 Y107.195 E0.01092
G1 X127.195 Y108.900 E0.04320
G1 X127.805 Y108.900 E0.01092
G1 X128.900 Y107.805 E0.02775
G1 X128.900 Y108.414 E0.01092
G1 X128.221 Y109.093 E0.01720
M204 S1000
;BEFORE_LAYER_CHANGE
;0.4


G1 F5760
G1 X128.900 Y108.414 E-0.33240
G1 F5760
G1 X128.900 Y107.805 E-0.21110
G1 F5760
G1 X128.458 Y108.247 E-0.21650
G1 E-0.04000 F2100.00000
G1 Z0.900 F7200.000
;AFTER_LAYER_CHANGE
;0.4
G1 X132.339 Y97.318 F7200.000
G1 Z0.400 F7200.000
G1 E0.80000 F2100.00000
G1 F3000
G1 X133.036 Y98.169 E0.01823
G1 X133.396 Y99.209 E0.01823
G1 X133.431 Y110.452 E0.18629
G1 X133.243 Y111.382 E0.01573
G1 X132.782 Y112.217 E0.01580
G1 X132.306 Y112.710 E0.01135
G1 X131.739 Y113.086 E0.01128
G1 X131.099 Y113.332 E0.01135
G1 X130.422 Y113.432 E0.01135
G1 X119.535 Y113.430 E0.18039
G1 X118.609 Y113.240 E0.01566
G1 X117.783 Y112.782 E0.01566
G1 X117.290 Y112.306 E0.01135
G1 X116.914 Y111.739 E0.01128
G1 X116.668 Y111.099 E0.01135
G1 X116.568 Y110.422 E0.01135
G1 X116.570 Y99.535 E0.18039
G1 X116.760 Y98.609 E0.01566
G1 X117.218 Y97.783 E0.01566
G1 X117.660 Y97.318 E0.01063
G1 X118.188 Y96.953 E0.01063
G1 X118.779 Y96.703 E0.01063
G1 X119.408 Y96.579 E0.01063
G1 X130.308 Y96.565 E0.18060
G1 X131.391 Y96.760 E0.01823
G1 X132.288 Y97.287 E0.01724
G1 F5760
G1 X133.036 Y98.169 E-0.40065
G1 F5760
G1 X133.376 Y99.149 E-0.35935
G1 E-0.04000 F2100.00000
G1 Z1.000 F7200.000
G1 X129.221 Y100.779 F7200.000
G1 Z0.400 F7200.000
G1 E0.80000 F2100.00000
M204 S800
G1 F1200
G1 X129.221 Y109.221 E0.15042
G1 X120.779 Y109.221 E0.15042
G1 X120.779 Y100.779 E0.15042
G1 X129.161 Y100.779 E0.14935
M204 S1000
G1 X129.650 Y100.350 F7200.000
M204 S800
G1 F1200
G1 X129.650 Y109.650 E0.16569
G1 X120.350 Y109.650 E0.16569
G1 X120.350 Y100.350 E0.16569
G1 X129.590 Y100.350 E0.16462
M204 S1000
G1 X130.078 Y99.922 F7200.000
M204 S800
G1 F1200
G1 X130.078 Y110.078 E0.18096
G1 X119.922 Y110.078 E0.18096
G1 X119.922 Y99.922 E0.18096
G1 X130.018 Y99.922 E0.17989
M204 S1000
G1 X129.975 Y100.308 F7200.000
G1 F5760
G1 X130.031 Y102.116 E-0.76000
G1 E-0.04000 F2100.00000
G1 Z1.000 F7200.000
G1 X129.093 Y101.779 F7200.000
G1 Z0.400 F7200.000
G1 E0.80000 F2100.00000
M204 S2000
G1 F3000
G1 X128.414 Y101.100 E0.01720
G1 X127.805 Y101.100 E0.01092
G1 X128.900 Y102.195 E0.02775
G1 X128.900 Y102.805 E0.01092
G1 X127.195 Y101.100 E0.04320
G1 X126.586 Y101.100 E0.01092
G1 X128.900 Y103.414 E0.05864
G1 X128.900 Y104.024 E0.01092
G1 X125.976 Y101.100 E0.07409
G1 X125.367 Y101.100 E0.01092
G1 X128.900 Y104.633 E0.08953
G1 X128.900 Y105.243 E0.01092
G1 X124.757 Y101.100 E0.10498
G1 X124.148 Y101.100 E0.01092
G1 X128.900 Y105.852 E0.12042
G1 X128.900 Y106.462 E0.01092
G1 X123.538 Y101.100 E0.13587
G1 X122.929 Y101.100 E0.01092
G1 X128.900 Y107.071 E0.15131
G1 X128.900 Y107.681 E0.01092
G1 X122.319 Y101.100 E0.16675
G1 X121.710 Y101.100 E0.01092
G1 X128.900 Y108.290 E0.18220
G1 X128.900 Y108.900 E0.01092
G1 X121.100 Y101.100 E0.19764
G1 X121.100 Y101.710 E0.01092
G1 X128.290 Y108.900 E0.18220
G1 X127.681 Y108.900 E0.01092
G1 X121.100 Y102.319 E0.16675
G1 X121.100 Y102.929 E0.01092
G1 X127.071 Y108.900 E0.15131
G1 X126.462 Y108.900 E0.01092
G1 X121.100 Y103.538 E0.13586
G1 X121.100 Y104.148 E0.01092
G1 X125.852 Y108.900 E0.12042
G1 X125.243 Y108.900 E0.01092
G1 X121.100 Y104.757 E0.10497
G1 X121.100 Y105.367 E0.01092
G1 X124.633 Y108.900 E0.08953
G1 X124.024 Y108.900 E0.01092
G1 X121.100 Y105.976 E0.07408
G1 X121.100 Y106.586 E0.01092
G1 X123.414 Y108.900 E0.05864
G1 X122.805 Y108.900 E0.01092
G1 X121.100 Y107.195 E0.04320
G1 X121.100 Y107.805 E0.01092
G1 X122.195 Y108.900 E0.02775
G1 X121.586 Y108.900 E0.01092
G1 X120.907 Y108.221 E0.01719
M204 S1000
;BEFORE_LAYER_CHANGE
;0.5


G1 F5760
G1 X121.586 Y108.900 E-0.33235
G1 F5760
G1 X122.195 Y108.900 E-0.21110
G1 F5760
G1 X121.753 Y108.458 E-0.21655
G1 E-0.04000 F2100.00000
G1 Z1.000 F7200.000
;AFTER_LAYER_CHANGE
;0.5
G1 X120.779 Y109.221 F7200.000
G1 Z0.500 F7200.000
G1 E0.80000 F2100.00000
M204 S800
G1 F1041
G1 X120.779 Y100.779 E0.15042
G1 X129.221 Y100.779 E0.15042
G1 X129.221 Y109.221 E0.15042
G1 X120.839 Y109.221 E0.14935
M204 S1000
G1 X120.350 Y109.650 F7200.000
M204 S800
G1 F1041
G1 X120.350 Y100.350 E0.16569
G1 X129.650 Y100.350 E0.16569
G1 X129.650 Y109.650 E0.16569
G1 X120.410 Y109.650 E0.16462
M204 S1000
G1 X119.922 Y110.078 F7200.000
M204 S800
G1 F1200
G1 X119.922 Y99.922 E0.18096
G1 X130.078 Y99.922 E0.18096
G1 X130.078 Y110.078 E0.18096
G1 X119.982 Y110.078 E0.17989
M204 S1000
G1 X120.025 Y109.692 F7200.000
G1 F5760
G1 X119.969 Y107.884 E-0.76000
G1 E-0.04000 F2100.00000
G1 Z1.100 F7200.000
G1 X128.221 Y109.093 F7200.000
G1 Z0.500 F7200.000
G1 E0.80000 F2100.00000
M204 S2000
G1 F2603
G1 X128.900 Y108.414 E0.01720
G1 X128.900 Y107.805 E0.01092
G1 X127.805 Y108.900 E0.02775
G1 X127.195 Y108.900 E0.01092
G1 X128.900 Y107.195 E0.04320
G1 X128.900 Y106.586 E0.01092
G1 X126.586 Y108.900 E0.05864
G1 X125.976 Y108.900 E0.01092
G1 X128.900 Y105.976 E0.07409
G1 X128.900 Y105.367 E0.01092
G1 X125.367 Y108.900 E0.08953
G1 X124.757 Y108.900 E0.01092
G1 X128.900 Y104.757 E0.10498
G1 X128.900 Y104.148 E0.01092
G1 X124.148 Y108.900 E0.12042
G1 X123.538 Y108.900 E0.01092
G1 X128.900 Y103.538 E0.13587
G1 X128.900 Y102.929 E0.01092
G1 X122.929 Y108.900 E0.15131
G1 X122.319 Y108.900 E0.01092
G1 X128.900 Y102.319 E0.16675
G1 X128.900 Y101.710 E0.01092
G1 X121.710 Y108.900 E0.18220
G1 X121.100 Y108.900 E0.01092
G1 X128.900 Y101.100 E0.19764
G1 X128.290 Y101.100 E0.01092
G1 X121.100 Y108.290 E0.18220
G1 X121.100 Y107.681 E0.01092
G1 X127.681 Y101.100 E0.16675
G1 X127.071 Y101.100 E0.01092
G1 X121.100 Y107.071 E0.15131
G1 X121.100 Y106.462 E0.01092
G1 X126.462 Y101.100 E0.13586
G1 X125.852 Y101.100 E0.01092
G1 X121.100 Y105.852 E0.12042
G1 X121.100 Y105.243 E0.01092
G1 X125.243 Y101.100 E0.10497
G1 X124.633 Y101.100 E0.01092
G1 X121.100 Y104.633 E0.08953
G1 X121.100 Y104.024 E0.01092
G1 X124.024 Y101.100 E0.07408
G1 X123.414 Y101.100 E0.01092
G1 X121.100 Y103.414 E0.05864
G1 X121.100 Y102.805 E0.01092
G1 X122.805 Y101.100 E0.04320
G1 X122.195 Y101.100 E0.01092
G1 X121.100 Y102.195 E0.02775
G1 X121.100 Y101.586 E0.01092
G1 X121.779 Y100.907 E0.01719
M204 S1000
;BEFORE_LAYER_CHANGE
;0.6
